X:1
T:Title
%%score { ( 1 3 ) | ( 2 4 ) }
L:1/8
M:4/4
K:G
V:1 treble nm="Grand Piano"
V:3 treble 
V:2 bass 
V:4 bass 
V:1
 z4 z2[Q:1/4=100] D2 | G3 D GABc | d6 z2 | B2 [DGd]2 [B,G]2 [DGB]2 |[M:3/4] [DFA]6 |[M:1/4] D2 | %6
[M:4/4] G3 D GABc | d6 z2 | [DGB]2 [EGc]2 [CFA]2 .[CFA]2 |[M:3/4] [B,DG]6 |[M:1/4] dc | %11
[M:4/4] B2 d2 G2 B2 | .A2 z2 z2 .[B,G]2 | z4 [Ec]2 G2 |[M:3/4] [FA]6 |[M:1/4] [Fd][Ac] | %16
[M:4/4] B2 d2 G2 B2 |[M:9/8] .A3 z3 z .B2 |[M:4/4] [B,DG][B,D][B,DG][GB] [Fd]2 [CDF]2 | %19
[M:3/4] [B,DG]6 |] %20
V:2
 z4 z2 D,2 | [G,B,D]4 [G,B,D]4 | [G,B,D][D,B,][B,,G,][D,A,] [G,B,]2[K:treble] [G,B,G]2 | %3
 [G,DG]2[K:bass] B,,2 E,2 B,,2 |[M:3/4] D,6 |[M:1/4] [F,A,]2 |[M:4/4] [G,B,D]4 [G,B,D]4 | %7
 z4 z2[K:treble] .C2 | G,2 C,2 D,2 z D |[M:3/4] G,,6 |[M:1/4][K:treble] [G,G]-[G,A,G] | %11
[M:4/4] [G,G]2 [G,B,G]2 [G,B,D]2[K:bass] [G,D]2 | [C,G,]2 [C,G,C]2 G,,2 G,,B,, | %13
 C,2 C,2 .[C,G,]2 .[E,B,E]2 |[M:3/4] [D,D]6 |[M:1/4] [D,A,][F,D] | %16
[M:4/4][K:treble] [G,DG]2 [G,B,G]2[K:bass] [G,B,D]2 [G,D]2 |[M:9/8] z3 z3 z .G,2 | %18
[M:4/4] z G, z G, [D,A,]2 D,2 |[M:3/4] G,,6 |] %20
V:3
 x8 | x8 | z GGF G2 d2 | x8 |[M:3/4] x6 |[M:1/4] x2 |[M:4/4] x8 | z GGF G2 dc | x8 |[M:3/4] x6 | %10
[M:1/4] x2 |[M:4/4] x8 | E-[EG]FE [G,B,D]2 G,-[G,DF] | [G,CE]2 [G,EG]2 z A, z ^C |[M:3/4] x6 | %15
[M:1/4] x2 |[M:4/4] x8 |[M:9/8] E-[EG]F E [Ec]2- [Ec]E-[EA] |[M:4/4] x8 |[M:3/4] x6 |] %20
V:4
 x8 | x8 | x6[K:treble] x2 | x2[K:bass] x6 |[M:3/4] x6 |[M:1/4] x2 |[M:4/4] x8 | %7
 [G,B,D][D,B,][B,,G,][D,A,] [G,B,]2[K:treble] [G,G]-[G,DG] | z4 z2 D,2 |[M:3/4] x6 | %10
[M:1/4][K:treble] B, z |[M:4/4] x6[K:bass] x2 | x8 | x8 |[M:3/4] x6 |[M:1/4] x2 | %16
[M:4/4][K:treble] x4[K:bass] x4 |[M:9/8] [C,G,]2 [C,G,C]- [C,G,C] [C,G,]2- [C,G,]C,-[C,A,] | %18
[M:4/4] D,2 D,2 z4 |[M:3/4] x6 |] %20

